X:1
T:Secourez moy
T:Secourez moy
T:Nicolas Gombert
C:Nicolas Gombert
%%score [ 1 [ 2 3 4 ] ]
L:1/8
Q:1/4=80
M:2/2
K:F
V:1 treble nm="Superius" snm="S"
V:2 treble-8 nm="Tenor 1" snm="T 1"
V:3 treble-8 nm="Tenor 2" snm="T 2"
V:4 treble-8 nm="Tenor 3" snm="T 3"
V:1
 G4 G4 | A4 F4 | f2 f3 edc | BA B4 A2 | B8 | G2 GA Bc d2- | d2 A2 A2 c2 | cB A4 G2- | G2 F2 G2 G2 | %9
w: Se- cou-|rez moy,|ma da- * * *|me _ par a-|mours,|ou aul- * tre- * ment|_ la mort me|vient _ _ que-|* * rir, ou|
 GA Bc d4- | d2 d2 d2 A2 | c3 B AG A2- | A2 G4 F2 | G4 z2 G2 | B3 c d4 | A2 B3 B B2 | A2 G4 F2 | %17
w: aul- * tre- * ment|_ la mort me|vient _ _ _ que-||rir, aul-|tre que vous|ne me peult don-|* ner se-|
 d2 f3 f f2 | e2 d4 c2 | z2 F2 A3 B | c4 G2 B2- | Bc d2 z2 A2 | B2 B2 G2 B2 | AG AB cB AG | %24
w: cours, me- don- ner|_ se- cours|à mon las|cueur, à mon|_ las cueur, le-|quel s'en- va mou-|rir, _ _ _ _ _ _ _|
 A2 G4 F2 | G4 z4 | z8 | z4 d2 f2 | e2 d3 d d2 | d2 c2 B2 A2 | z2 G2 B3 c | d4 z4 | z4 z2 c2 | %33
w: _ _ _|rir,||hel- las,|hel- las ve- nez|tost se- cou- rir|cel- luy qui|vit|pour|
 c2 c2 B2 G2 | A4 G2 G2 | G4 A4 | F2 B2 B2 B2 | A2 FG AB c2- | cB AG A2 G2- | G2 F2 G2 B2 | %40
w: vous en grant tris-|tes- se, car|de son|cueur vous es- tes|la mais- * * * tres-||* * se, vous|
 B2 B2 A2 FG | AB cd ed cB | AG G4 F2 |"^b" G8 |] %44
w: es- tes la mais- *|* * tres- * * * * *||se.|
V:2
 d4 d2 e2 | f4 z2 b2- | b2 ag f2 f2 | g2 d2 f4 | d4 G2 GA | Bc d3 e f2 | d3 e fg a2 | a2 e2 f2 e2 | %8
w: Se- cou- rez|moy, ma|_ da- * * me|par a- *|mours, ou aul- *|tre- * ment _ _|la _ _ _ mort|me vient que- *|
 d8- | d4 z2 d2 | de fg a3 a | a2 a2 e2 f2- | fe dc d2 d2 | B2 G2 B3 c | d2 g2 g2 g2 | f2 e2 d4 | %16
w: rir,|_ ou|aul- * tre- * ment la|mort me vient que-|* * * * rir, aul-|tre que vous ne|peult don- ner se|cours, _ _|
 z2 G2 B3 c | d2 d2 f4 | g4 a4- | a4 z2 a2 | a2 a2 g3 f | gfed e2 e2 | d2 B2 B2 B2 |"^b" f4 e4- | %24
w: à mon las|cueur, à mon|las cueur,|_ le-|quel s'en va mou-|rir _ _ _ _ le-|quel s'en va mou-|rir _|
 e2 c2 d4 | z2 B2 d2 c2 | B8 | z2 g2 b2 a2 | g3 g g2 g2 | f2 e2 d4- | d4 z2 G2 | B4 c4 | %32
w: _ _ _|hel- las, hel-|las,|hel- las, he-|las, ve- nez tost|se- cou- rir|_ cel-|luy qui|
 d2 f2 f2 f2 | e2 cd ef g2- | g2 f2 g2 d2 | d2 e2 f4 | z2 d2 f4- | f2 f2 f2 f2 |"^b" e6 c2 | %39
w: vit pour vous en|grant tris- * * * tes-|* * se, car|de son cueur|vous es-|* tes la mais-|tres- *|
 d4 z2 d2- | d2 f4 f2 |"^b" f2 f2 e4- | e2 c2 d4 | d8 |] %44
w: se, vous|_ es- tes|la mais- tres-||se.|
V:3
 G4 B4 | c4 d4 | z2 d2 d2 d2 | d2 cB c2 c2 | B4 z2 G2 | GA Bc d3 d | d2 d2 c2 AB | cd c3 BAG | %8
w: Se- cou-|rez moy,|ma da- me|par _ _ _ a-|mours, ou|aul- * tre- * ment la|mort me vient que- *||
 A4 G4 | z2 G2 GA Bc | d3 d d2 d2 | c2 AB cd c2- | cB AG A4 | G8- | G8 | z2 G2 B4 | c4 d4 | z8 | %18
w: * rir,|ou aul- * tre- *|ment la mort me|me vient _ _ _ _|_ _ _ _ que-|rir,|_|aul- tre|que vous||
 z2 d2 f3 f | f3 e d4 | c4 z2 G2 | B4 c4 | d4 z2 d2 | d2 d2 c3 B | cB AG A4 | G4 d2 f2 | %26
w: ne peult don-|ner _ se-|cours à|mon las|cueur, le-|quel s'en va _|_ _ _ _ mou-|rir, hel- las,|
"^b" e2 d3 d d2 | d2 c2 B2 F2 | z2 G2 B3 c | d2 e2 f4 | d2 g2 g2 g2 | f2 d2 e4 | d4 z4 | z8 | %34
w: hel- las, ve- nez|tost se- cou- rir|cel- luy qui|vit pour vous|en grand tris- tes-||se,||
 z4 z2 G2 | B4 c4 | d4 z2 d2 | d2 d2 c2 AB |"^b" cded cB AG | A4 G4 | z2 d2 d2 d2 | %41
w: car|de son|cueur vous|es- tes la mais- *|tres- * * * * * * *|* se,|vous es- tes|
"^b" c2 AB cd ed | cB AG A4 | G8 |] %44
w: la mais- * tres- * * *||se.|
V:4
 G4 G4 | F4 B4 | z2 B2 B3 A | G2 G2 F4 | z2 G2 GA Bc | d4 z2 D2 | DE FG A3 A | A2 A2 F2 G2 | %8
w: Se cou-|rez moy,|ma da- me|par a- mours,|ou aul- * tre- *|ment, ou|aul- * tre- * ment la|mort me vient _|
 D4 G4 | G2 GA Bc d2 | D4 DE FG | A3 A A2 A2 | F2 G2 D4 | G8 | z2 G2 B3 c | d2 G2 G2 G2 | %16
w: que- rir,|ou aul- * tre- * ment,|ou aul- * tre- *|ment la mort me|vient _ que-|rir,|aul- tre que|vous ne peult don-|
 F2 E2 D4 | z2 d2 d2 d2 | c2 B2 A4 | z2 D2 F3 G | A2 A2 B2 B2 | G2 B2 A4 | z8 | %23
w: ner se- cours,|ne peult don-|ner se- cours|à mon la|cueur le- quel s'en|va mou- rir,||
"^b""^b" z2 D2 E2 E2 |"^b" C2 E2 D4 | z2 G2 B2 A2 | G3 G G2 G2 | F2 E2 D4 | z4 z2 G2 | B2 c2 d3 c | %30
w: le- quel s'en|va mou- rir,|hel- las, hel-|las, ve- nez tost|se- cou- rir|cel-|luy qui vit pour|
 BA G4 d2 | d2 d2 c2 A2 | B4 A4 | z8 | z4 z2 G2 | G4 F4 | B,4 z2 D2 |"^b" D2 D2 F2 F2 |"^#" C6 E2 | %39
w: vous _ _ en|grand tris tes- *|* se,||car|de son|cueur vous|es- tes la mais-|tres- *|
 D4 G4 | z2 D2 D2 D2 | F2 F2 C4- |"^b" C2 E2 D4 | G8 |] %44
w: * se,|vous es- tes|la mais- tres-||se.|

